assets/img/svg/play.svg

<svg width="56" height="56" viewBox="0 0 56 56" fill="none" xmlns="http://www.w3.org/2000/svg">
<path d="M13.8749 45.4445L13.8658 45.4394C13.3775 45.1626 13.0049 44.5745 13.0049 43.8596V12.1408C13.0049 11.423 13.3763 10.8384 13.8659 10.561L13.8725 10.5573L13.879 10.5535C14.0875 10.4337 14.3243 10.3721 14.5648 10.3751C14.8052 10.3781 15.0404 10.4457 15.2458 10.5707L15.2537 10.5755L15.2617 10.5803L42.3426 26.7906C42.5415 26.9191 42.7056 27.0947 42.8203 27.3021C42.9382 27.5151 43 27.7546 43 27.998C43 28.2415 42.9382 28.4809 42.8203 28.6939C42.7056 28.9013 42.5414 29.077 42.3426 29.2055L15.2572 45.4202L15.2479 45.4258C15.0357 45.5541 14.7929 45.6229 14.545 45.6252C14.3098 45.6235 14.0791 45.5613 13.8749 45.4445Z" fill="#1C62AE" stroke="#F4F4F4" stroke-width="5"/>
</svg>

<svg width="56" height="56" fill="none" xmlns="http://www.w3.org/2000/svg"><path d="M13.875 45.444l-.01-.005c-.488-.276-.86-.864-.86-1.58V12.142c0-.718.371-1.303.86-1.58l.008-.004.006-.004a1.343 1.343 0 011.367.018l.008.005.008.004 27.08 16.21a1.437 1.437 0 010 2.416L15.258 45.42l-.01.006a1.383 1.383 0 01-.702.2 1.37 1.37 0 01-.67-.181z" fill="#1C62AE" stroke="#F4F4F4" stroke-width="5"/></svg>
